svgs/materials/action/history_toggle_off.svg

<?xml version="1.0" encoding="UTF-8" standalone="no"?>
<svg
   enable-background="new 0 0 24 24"
   height="24"
   viewBox="0 0 24 24"
   width="24"
   version="1.1"
   id="svg8"
   sodipodi:docname="history_toggle_off.svg"
   inkscape:version="1.2 (dc2aeda, 2022-05-15)"
   xmlns:inkscape="http://www.inkscape.org/namespaces/inkscape"
   xmlns:sodipodi="http://sodipodi.sourceforge.net/DTD/sodipodi-0.dtd"
   xmlns="http://www.w3.org/2000/svg"
   xmlns:svg="http://www.w3.org/2000/svg">
  <defs
     id="defs12" />
  <sodipodi:namedview
     id="namedview10"
     pagecolor="#ffffff"
     bordercolor="#000000"
     borderopacity="0.25"
     inkscape:showpageshadow="2"
     inkscape:pageopacity="0.0"
     inkscape:pagecheckerboard="0"
     inkscape:deskcolor="#d1d1d1"
     showgrid="false"
     inkscape:zoom="9.8333333"
     inkscape:cx="12.050847"
     inkscape:cy="12"
     inkscape:window-width="1309"
     inkscape:window-height="456"
     inkscape:window-x="0"
     inkscape:window-y="25"
     inkscape:window-maximized="0"
     inkscape:current-layer="svg8" />
  <path
     id="rect2"
     style="fill:none"
     d="M 0,0 H 24 V 24 H 0 Z" />
  <path
     d="m 15.1,19.37 1,1.74 c -0.96,0.44 -2.01,0.73 -3.1,0.84 v -2.02 c 0.74,-0.09 1.44,-0.28 2.1,-0.56 z M 4.07,13 H 2.05 c 0.11,1.1 0.4,2.14 0.84,3.1 l 1.74,-1 C 4.35,14.44 4.16,13.74 4.07,13 Z M 15.1,4.63 16.1,2.89 C 15.14,2.45 14.1,2.16 13,2.05 v 2.02 c 0.74,0.09 1.44,0.28 2.1,0.56 z M 19.93,11 h 2.02 C 21.84,9.9 21.55,8.86 21.11,7.9 l -1.74,1 c 0.28,0.66 0.47,1.36 0.56,2.1 z m -11.03,8.37 -1,1.74 c 0.96,0.44 2.01,0.73 3.1,0.84 V 19.93 C 10.26,19.84 9.56,19.65 8.9,19.37 Z M 11,4.07 V 2.05 C 9.9,2.16 8.86,2.45 7.9,2.89 l 1,1.74 C 9.56,4.35 10.26,4.16 11,4.07 Z m 7.36,3.1 1.74,-1.01 C 19.47,5.29 18.7,4.52 17.83,3.89 l -1.01,1.74 c 0.59,0.45 1.1,0.96 1.54,1.54 z M 4.63,8.9 2.89,7.9 C 2.45,8.86 2.16,9.9 2.05,11 H 4.07 C 4.16,10.26 4.35,9.56 4.63,8.9 Z m 15.3,4.1 c -0.09,0.74 -0.28,1.44 -0.56,2.1 l 1.74,1 c 0.44,-0.96 0.73,-2.01 0.84,-3.1 z m -3.1,5.36 1.01,1.74 c 0.87,-0.63 1.64,-1.4 2.27,-2.27 l -1.74,-1.01 c -0.45,0.59 -0.96,1.1 -1.54,1.54 z M 7.17,5.64 6.17,3.89 C 5.29,4.53 4.53,5.29 3.9,6.17 L 5.64,7.18 C 6.08,6.59 6.59,6.08 7.17,5.64 Z m -1.53,11.19 -1.74,1 c 0.63,0.87 1.4,1.64 2.27,2.27 L 7.18,18.36 C 6.59,17.92 6.08,17.41 5.64,16.83 Z M 13,7 h -2 v 5.41 l 4.29,4.29 1.41,-1.41 -3.7,-3.7 z"
     id="path4" />
</svg>

<svg xmlns="http://www.w3.org/2000/svg" enable-background="new 0 0 24 24" height="24" viewBox="0 0 24 24" width="24"><g><rect fill="none" height="24" width="24"/><path d="M15.1,19.37l1,1.74c-0.96,0.44-2.01,0.73-3.1,0.84v-2.02C13.74,19.84,14.44,19.65,15.1,19.37z M4.07,13H2.05 c0.11,1.1,0.4,2.14,0.84,3.1l1.74-1C4.35,14.44,4.16,13.74,4.07,13z M15.1,4.63l1-1.74C15.14,2.45,14.1,2.16,13,2.05v2.02 C13.74,4.16,14.44,4.35,15.1,4.63z M19.93,11h2.02c-0.11-1.1-0.4-2.14-0.84-3.1l-1.74,1C19.65,9.56,19.84,10.26,19.93,11z M8.9,19.37l-1,1.74c0.96,0.44,2.01,0.73,3.1,0.84v-2.02C10.26,19.84,9.56,19.65,8.9,19.37z M11,4.07V2.05 c-1.1,0.11-2.14,0.4-3.1,0.84l1,1.74C9.56,4.35,10.26,4.16,11,4.07z M18.36,7.17l1.74-1.01c-0.63-0.87-1.4-1.64-2.27-2.27 l-1.01,1.74C17.41,6.08,17.92,6.59,18.36,7.17z M4.63,8.9l-1.74-1C2.45,8.86,2.16,9.9,2.05,11h2.02C4.16,10.26,4.35,9.56,4.63,8.9z M19.93,13c-0.09,0.74-0.28,1.44-0.56,2.1l1.74,1c0.44-0.96,0.73-2.01,0.84-3.1H19.93z M16.83,18.36l1.01,1.74 c0.87-0.63,1.64-1.4,2.27-2.27l-1.74-1.01C17.92,17.41,17.41,17.92,16.83,18.36z M7.17,5.64L6.17,3.89 C5.29,4.53,4.53,5.29,3.9,6.17l1.74,1.01C6.08,6.59,6.59,6.08,7.17,5.64z M5.64,16.83L3.9,17.83c0.63,0.87,1.4,1.64,2.27,2.27 l1.01-1.74C6.59,17.92,6.08,17.41,5.64,16.83z M13,7h-2v5.41l4.29,4.29l1.41-1.41L13,11.59V7z"/></g></svg>
